svgs/sharp-light/taxi-bus.svg

<svg xmlns="http://www.w3.org/2000/svg" viewBox="0 0 640 512"><!--! Font Awesome Pro 6.6.0 by @fontawesome - https://fontawesome.com License - https://fontawesome.com/license (Commercial License) Copyright 2024 Fonticons, Inc. --><path d="M32 96l0-11.7C42.7 68.5 86.7 32 192 32s149.3 36.5 160 52.3L352 96l32 0 0-16 0-3.8-1.7-3.4C367.8 43.8 310.2 0 192 0S16.2 43.8 1.7 72.8L0 76.2 0 80 0 400l0 16 16 0 16 0 0 48 0 16 32 0 0-16 0-48 160 0 0-32L32 384l0-128 160 0 32 0 51.8 0 9.1-32L208 224l0-96 128 0 0-32L192 96 32 96zm0 32l144 0 0 96L32 224l0-96zm72 208a24 24 0 1 0 0-48 24 24 0 1 0 0 48zM496 160l0 16-96 0 0-16 96 0zm-128 0l0 16-24 0-12.1 0-3.3 11.6L299.9 288 288 288l-32 0 0 32 0 96 0 16 0 32 0 48 32 0 0-48 320 0 0 48 32 0 0-48 0-32 0-16 0-96 0-32-32 0-11.9 0L567.4 187.6 564.1 176 552 176l-24 0 0-16 0-32-32 0-96 0-32 0 0 32zm128 48l32 0 11.9 0 22.9 80-229.6 0 22.9-80 11.9 0 32 0 96 0zM608 416l0 16-320 0 0-16 0-96 23.6 0c.2 0 .5 0 .7 0l271.3 0c.2 0 .5 0 .7 0l23.6 0 0 96zM360 376a24 24 0 1 0 -48 0 24 24 0 1 0 48 0zm200 24a24 24 0 1 0 0-48 24 24 0 1 0 0 48z"/></svg>

<svg xmlns="http://www.w3.org/2000/svg" viewBox="0 0 640 512"><!--! Font Awesome Pro 6.4.2 by @fontawesome - https://fontawesome.com License - https://fontawesome.com/license (Commercial License) Copyright 2023 Fonticons, Inc. --><path d="M32 96V84.3C42.7 68.5 86.7 32 192 32s149.3 36.5 160 52.3V96h32V80 76.2l-1.7-3.4C367.8 43.8 310.2 0 192 0S16.2 43.8 1.7 72.8L0 76.2V80 400v16H16 32v48 16H64V464 416H224V384H32V256H192h32 51.8l9.1-32H208V128H336V96H192 32zm0 32H176v96H32V128zm72 208a24 24 0 1 0 0-48 24 24 0 1 0 0 48zM496 160v16H400V160h96zm-128 0v16H344 331.9l-3.3 11.6L299.9 288H288 256v32 96 16 32 48h32V464H608v48h32V464 432 416 320 288H608 596.1L567.4 187.6 564.1 176H552 528V160 128H496 400 368v32zm128 48h32 11.9l22.9 80H333.2l22.9-80H368h32 96zM608 416v16H288V416 320h23.6c.2 0 .5 0 .7 0H583.6c.2 0 .5 0 .7 0H608v96zM360 376a24 24 0 1 0 -48 0 24 24 0 1 0 48 0zm200 24a24 24 0 1 0 0-48 24 24 0 1 0 0 48z"/></svg>
